curriculum/images/exercise-icons/good-boy.svg

<svg width="89" height="87" viewBox="0 0 89 87" fill="none" xmlns="http://www.w3.org/2000/svg">
<path d="M80.949 59.7703C83.7025 53.678 84.8851 46.9927 84.3885 40.3255C83.892 33.6584 81.7323 27.222 78.1068 21.6047C74.4813 15.9875 69.5056 11.3686 63.6346 8.17025C57.7636 4.97191 51.1846 3.29614 44.499 3.29614C37.8134 3.29614 31.2344 4.97191 25.3634 8.17025C19.4924 11.3686 14.5167 15.9875 10.8912 21.6047C7.2657 27.222 5.10597 33.6584 4.60946 40.3255C4.11295 46.9927 5.2955 53.678 8.049 59.7703H80.949Z" fill="#B8ECFF"/>
<path d="M5.5 59.7703H83.5" stroke="#45413C" stroke-linecap="round" stroke-linejoin="round"/>
<path d="M1 59.7703H3.5" stroke="#45413C" stroke-linecap="round" stroke-linejoin="round"/>
<path d="M85.5 59.7703H88" stroke="#45413C" stroke-linecap="round" stroke-linejoin="round"/>
<path d="M8.04 59.7703C11.1219 66.88 16.2152 72.9336 22.6932 77.186C29.1711 81.4383 36.751 83.7039 44.5 83.7039C52.249 83.7039 59.8289 81.4383 66.3068 77.186C72.7848 72.9336 77.8781 66.88 80.96 59.7703H8.04Z" fill="#9CEB60"/>
<path d="M82.331 59.7703H6.858" stroke="#45413C" stroke-linecap="round" stroke-linejoin="round"/>
<path d="M59.2 72.0143H66.714" stroke="#6DD627" stroke-linecap="round"/>
<path d="M54.817 72.0143H56.695" stroke="#6DD627" stroke-linecap="round"/>
<path d="M51.686 72.0143H52.312" stroke="#6DD627" stroke-linecap="round"/>
<path d="M27.864 68.3392H35.379" stroke="#6DD627" stroke-linecap="round"/>
<path d="M23.481 68.3392H25.36" stroke="#6DD627" stroke-linecap="round"/>
<path d="M20.35 68.3392H20.976" stroke="#6DD627" stroke-linecap="round"/>
<path d="M39.611 79.8893H47.125" stroke="#6DD627" stroke-linecap="round"/>
<path d="M35.227 79.8893H37.106" stroke="#6DD627" stroke-linecap="round"/>
<path d="M32.096 79.8893H32.722" stroke="#6DD627" stroke-linecap="round"/>
<path d="M29.956 43.2233C28.9295 43.3585 27.8913 43.0805 27.0698 42.4503C26.2483 41.8201 25.7108 40.8893 25.5755 39.8628C25.4402 38.8363 25.7183 37.7981 26.3485 36.9766C26.9787 36.155 27.9095 35.6175 28.936 35.4823L29.043 35.4683C30.0695 35.333 31.1077 35.6111 31.9292 36.2413C32.7507 36.8715 33.2882 37.8023 33.4235 38.8288C33.5588 39.8553 33.2807 40.8935 32.6505 41.715C32.0203 42.5365 31.0895 43.074 30.063 43.2093L29.956 43.2233Z" fill="#00B8F0" stroke="#45413C" stroke-linecap="round" stroke-linejoin="round"/>
<path d="M28.725 31.8963C27.9745 31.9831 27.2202 31.7686 26.6276 31.2999C26.035 30.8312 25.6525 30.1466 25.564 29.3963L25.311 27.2533C25.1473 25.7913 25.4383 24.3144 26.1444 23.0238C26.8506 21.7332 27.9375 20.6917 29.257 20.0413C30.4576 19.4472 31.4095 18.4477 31.9443 17.2195C32.479 15.9913 32.5622 14.6135 32.1792 13.3299C31.7962 12.0463 30.9716 10.9394 29.8512 10.2051C28.7308 9.4708 27.3869 9.15633 26.057 9.31731L25.909 9.33631C24.4515 9.55978 23.137 10.3384 22.2406 11.5091C21.3443 12.6799 20.9355 14.152 21.1 15.6173C21.1686 16.1784 21.0685 16.7472 20.8127 17.2512C20.5569 17.7552 20.1568 18.1717 19.6634 18.4475C19.1701 18.7234 18.6058 18.8461 18.0424 18.8002C17.479 18.7542 16.9421 18.5415 16.5 18.1893C16.2061 17.9584 15.9608 17.6717 15.7782 17.3456C15.5956 17.0195 15.4793 16.6605 15.436 16.2893C15.0755 13.342 15.8876 10.371 17.6972 8.01684C19.5069 5.66268 22.1691 4.11388 25.11 3.70431L25.41 3.66431C28.0715 3.35024 30.7584 3.98633 32.9967 5.46034C35.2349 6.93434 36.8806 9.15153 37.6433 11.7207C38.4061 14.2898 38.2369 17.0458 37.1656 19.5024C36.0943 21.9589 34.1897 23.9582 31.788 25.1473C31.52 25.275 31.2977 25.4821 31.1514 25.7404C31.0051 25.9987 30.9417 26.2958 30.97 26.5913L31.222 28.7343C31.3034 29.4708 31.0968 30.2102 30.6453 30.7977C30.1939 31.3853 29.5326 31.7754 28.8 31.8863L28.725 31.8963Z" fill="#00B8F0" stroke="#45413C" stroke-linecap="round" stroke-linejoin="round"/>
<path opacity="0.15" d="M33.862 76.2923C33.862 76.6087 34.3439 76.9219 35.2802 77.2142C36.2165 77.5065 37.5888 77.772 39.3189 77.9957C41.0489 78.2194 43.1028 78.3969 45.3632 78.5179C47.6236 78.639 50.0463 78.7013 52.493 78.7013C54.9397 78.7013 57.3624 78.639 59.6228 78.5179C61.8832 78.3969 63.9371 78.2194 65.6671 77.9957C67.3972 77.772 68.7695 77.5065 69.7058 77.2142C70.6421 76.9219 71.124 76.6087 71.124 76.2923C71.124 75.6534 69.1611 75.0407 65.6671 74.5889C62.1731 74.1371 57.4342 73.8833 52.493 73.8833C47.5518 73.8833 42.8129 74.1371 39.3189 74.5889C35.8249 75.0407 33.862 75.6534 33.862 76.2923Z" fill="#45413C"/>
<path d="M64.622 56.5073L66.945 56.1653C67.7307 56.0445 68.5323 56.2387 69.1756 56.7057C69.8188 57.1727 70.2517 57.8748 70.38 58.6593L70.413 58.8713C70.4639 59.1984 70.4591 59.5318 70.399 59.8573L67.766 71.4773C68.2129 71.9232 68.5604 72.4586 68.7855 73.0484C69.0106 73.6383 69.1082 74.2691 69.072 74.8993H62.682L64.622 56.5073Z" fill="#F0D3A8" stroke="#45413C" stroke-linecap="round" stroke-linejoin="round"/>
<path d="M40.365 56.5073L38.041 56.1653C37.2553 56.0445 36.4537 56.2387 35.8105 56.7057C35.1672 57.1727 34.7343 57.8748 34.606 58.6593L34.573 58.8713C34.5221 59.1984 34.5269 59.5318 34.587 59.8573L37.22 71.4773C36.7731 71.9232 36.4256 72.4586 36.2005 73.0484C35.9754 73.6383 35.8778 74.2691 35.914 74.8993H42.3L40.365 56.5073Z" fill="#F0D3A8" stroke="#45413C" stroke-linecap="round" stroke-linejoin="round"/>
<path d="M52.493 41.9343C40.554 41.9343 33.587 58.2543 44.937 71.0013C46.287 72.5183 44.937 74.9013 44.937 74.9013H59.852C59.5848 74.6749 59.3702 74.393 59.223 74.0753C59.0758 73.7575 58.9995 73.4115 58.9995 73.0613C58.9995 72.7111 59.0758 72.3651 59.223 72.0474C59.3702 71.7296 59.5848 71.4478 59.852 71.2213C71.479 58.5593 64.5 41.9343 52.493 41.9343Z" fill="#F7E5C6"/>
<path d="M52.493 41.9343C50.8428 41.9313 49.2085 42.2569 47.6854 42.8922C46.1623 43.5275 44.781 44.4596 43.622 45.6343C44.8293 47.6685 46.6948 49.2296 48.91 50.0593C49.7647 50.3301 50.6565 50.465 51.553 50.4593C54.963 50.4593 58.627 48.6283 61.64 45.9343C60.4745 44.6717 59.06 43.6644 57.4856 42.9759C55.9113 42.2875 54.2113 41.9328 52.493 41.9343Z" fill="#F0D3A8"/>
<path d="M44.937 74.8993H59.852C60.5849 72.8479 61.437 70.8412 62.404 68.8893C61.338 57.4673 57.304 48.9683 52.493 48.9683C47.682 48.9683 43.647 57.4683 42.582 68.8913C43.4925 70.8424 44.2791 72.8491 44.937 74.8993Z" fill="white"/>
<path d="M52.493 41.9343C40.554 41.9343 33.587 58.2543 44.937 71.0013C46.287 72.5183 44.937 74.9013 44.937 74.9013H59.852C59.5848 74.6749 59.3702 74.393 59.223 74.0753C59.0758 73.7575 58.9995 73.4115 58.9995 73.0613C58.9995 72.7111 59.0758 72.3651 59.223 72.0474C59.3702 71.7296 59.5848 71.4478 59.852 71.2213C71.479 58.5593 64.5 41.9343 52.493 41.9343Z" stroke="#45413C" stroke-linecap="round" stroke-linejoin="round"/>
<path d="M49.829 50.8563C49.829 51.5628 50.1097 52.2404 50.6093 52.74C51.1089 53.2396 51.7865 53.5203 52.493 53.5203C53.1995 53.5203 53.8771 53.2396 54.3767 52.74C54.8763 52.2404 55.157 51.5628 55.157 50.8563C55.157 50.1497 54.8763 49.4721 54.3767 48.9725C53.8771 48.4729 53.1995 48.1923 52.493 48.1923C51.7865 48.1923 51.1089 48.4729 50.6093 48.9725C50.1097 49.4721 49.829 50.1497 49.829 50.8563Z" fill="#FFE500"/>
<path d="M52.493 50.1902C53.0237 50.1903 53.5423 50.3488 53.9823 50.6454C54.4224 50.9421 54.7639 51.3633 54.963 51.8552C55.1264 51.4509 55.188 51.0126 55.1424 50.5788C55.0968 50.1451 54.9454 49.7291 54.7016 49.3676C54.4577 49.006 54.1288 48.7098 53.7437 48.5051C53.3586 48.3003 52.9291 48.1932 52.493 48.1932C52.0569 48.1932 51.6274 48.3003 51.2423 48.5051C50.8572 48.7098 50.5283 49.006 50.2844 49.3676C50.0406 49.7291 49.8892 50.1451 49.8436 50.5788C49.798 51.0126 49.8596 51.4509 50.023 51.8552C50.2222 51.3634 50.5637 50.9422 51.0038 50.6456C51.4438 50.349 51.9623 50.1904 52.493 50.1902Z" fill="#FFF48C"/>
<path d="M49.829 50.8563C49.829 51.5628 50.1097 52.2404 50.6093 52.74C51.1089 53.2396 51.7865 53.5203 52.493 53.5203C53.1995 53.5203 53.8771 53.2396 54.3767 52.74C54.8763 52.2404 55.157 51.5628 55.157 50.8563C55.157 50.1497 54.8763 49.4721 54.3767 48.9725C53.8771 48.4729 53.1995 48.1923 52.493 48.1923C51.7865 48.1923 51.1089 48.4729 50.6093 48.9725C50.1097 49.4721 49.829 50.1497 49.829 50.8563Z" stroke="#45413C" stroke-linecap="round" stroke-linejoin="round"/>
<path d="M39.182 57.3623C39.177 61.7003 41.112 67.9473 41.112 67.9473C41.172 68.3871 41.1327 68.8348 40.9968 69.2575C40.861 69.6801 40.6321 70.0668 40.327 70.3893C39.7984 70.9429 39.5083 71.6819 39.519 72.4473C39.4747 73.0483 39.6688 73.6426 40.0594 74.1015C40.45 74.5604 41.0056 74.847 41.606 74.8993H46.283C46.8502 74.8498 47.3751 74.579 47.744 74.1453C48.1129 73.7116 48.2961 73.1501 48.254 72.5823C48.2664 71.7357 47.9428 70.9188 47.354 70.3103C47.176 70.1353 43.854 64.0993 44.542 58.7033" fill="#F7E5C6"/>
<path d="M39.182 57.3623C39.177 61.7003 41.112 67.9473 41.112 67.9473C41.172 68.3871 41.1327 68.8348 40.9968 69.2575C40.861 69.6801 40.6321 70.0668 40.327 70.3893C39.7984 70.9429 39.5083 71.6819 39.519 72.4473C39.4747 73.0483 39.6688 73.6426 40.0594 74.1015C40.45 74.5604 41.0056 74.847 41.606 74.8993H46.283C46.8502 74.8498 47.3751 74.579 47.744 74.1453C48.1129 73.7116 48.2961 73.1501 48.254 72.5823C48.2664 71.7357 47.9428 70.9188 47.354 70.3103C47.176 70.1353 43.854 64.0993 44.542 58.7033" stroke="#45413C" stroke-linecap="round" stroke-linejoin="round"/>
<path d="M65.8 57.3623C65.8 61.7003 63.87 67.9473 63.87 67.9473C63.8102 68.3871 63.8496 68.8348 63.9855 69.2574C64.1213 69.6799 64.3501 70.0667 64.655 70.3893C65.1836 70.9429 65.4737 71.6819 65.463 72.4473C65.5076 73.0482 65.3137 73.6425 64.9233 74.1014C64.5328 74.5604 63.9773 74.847 63.377 74.8993H58.7C58.1328 74.8498 57.6079 74.579 57.239 74.1453C56.8701 73.7116 56.6869 73.1501 56.729 72.5823C56.7166 71.7357 57.0402 70.9188 57.629 70.3103C57.807 70.1353 61.129 64.0993 60.442 58.7033" fill="#F7E5C6"/>
<path d="M65.8 57.3623C65.8 61.7003 63.87 67.9473 63.87 67.9473C63.8102 68.3871 63.8496 68.8348 63.9855 69.2574C64.1213 69.6799 64.3501 70.0667 64.655 70.3893C65.1836 70.9429 65.4737 71.6819 65.463 72.4473C65.5076 73.0482 65.3137 73.6425 64.9233 74.1014C64.5328 74.5604 63.9773 74.847 63.377 74.8993H58.7C58.1328 74.8498 57.6079 74.579 57.239 74.1453C56.8701 73.7116 56.6869 73.1501 56.729 72.5823C56.7166 71.7357 57.0402 70.9188 57.629 70.3103C57.807 70.1353 61.129 64.0993 60.442 58.7033" stroke="#45413C" stroke-linecap="round" stroke-linejoin="round"/>
<path d="M52.8 21.8593C52.8868 23.0715 52.4924 24.2691 51.7023 25.1924C50.9121 26.1158 49.7899 26.6905 48.5788 26.7921C47.3678 26.8937 46.1655 26.5139 45.2326 25.735C44.2997 24.9562 43.7113 23.841 43.595 22.6313C43.437 20.7493 45.611 16.3993 46.752 14.2653C46.8241 14.1291 46.9292 14.0132 47.0578 13.9282C47.1863 13.8433 47.3342 13.792 47.4877 13.7792C47.6413 13.7664 47.7956 13.7923 47.9365 13.8547C48.0774 13.9171 48.2003 14.0139 48.294 14.1363C49.778 16.0513 52.646 19.9783 52.8 21.8593Z" fill="#BF8256" stroke="#45413C" stroke-linecap="round" stroke-linejoin="round"/>
<path d="M62.276 24.9253C61.4802 25.8549 61.0857 27.0624 61.1794 28.2825C61.273 29.5027 61.847 30.6358 62.7753 31.4332C63.7037 32.2305 64.9105 32.6269 66.1308 32.5352C67.3511 32.4435 68.4852 31.8714 69.284 30.9443C70.514 29.5173 71.3 24.7173 71.627 22.3173C71.6486 22.1646 71.6314 22.009 71.5771 21.8647C71.5228 21.7204 71.433 21.5921 71.3161 21.4916C71.1991 21.3911 71.0588 21.3216 70.908 21.2896C70.7571 21.2575 70.6007 21.264 70.453 21.3083C68.131 21.9913 63.507 23.4933 62.276 24.9253Z" fill="#BF8256" stroke="#45413C" stroke-linecap="round" stroke-linejoin="round"/>
<path d="M49.659 47.7433C40.871 44.8983 38.141 18.1243 57.244 24.3073C76.347 30.4903 58.447 50.5873 49.659 47.7433Z" fill="#FFF5E3"/>
<path d="M48.343 30.9163C48.343 31.3998 48.5351 31.8634 48.8769 32.2053C49.2188 32.5472 49.6825 32.7393 50.166 32.7393C50.6495 32.7393 51.1132 32.5472 51.4551 32.2053C51.7969 31.8634 51.989 31.3998 51.989 30.9163C51.989 30.4328 51.7969 29.9691 51.4551 29.6272C51.1132 29.2853 50.6495 29.0933 50.166 29.0933C49.6825 29.0933 49.2188 29.2853 48.8769 29.6272C48.5351 29.9691 48.343 30.4328 48.343 30.9163Z" fill="#45413C"/>
<path d="M52.785 46.1463C52.362 47.4463 49.659 47.7463 49.659 47.7463C49.659 47.7463 47.64 45.9173 48.062 44.6173C48.2648 43.991 48.708 43.4709 49.2942 43.1714C49.8805 42.8719 50.5617 42.8176 51.188 43.0203C51.8143 43.2231 52.3344 43.6663 52.6339 44.2526C52.9334 44.8388 52.9878 45.52 52.785 46.1463Z" fill="#45413C"/>
<path d="M60.1 44.0172C66.107 38.6372 69.455 29.2402 58.817 24.8802C57.4321 26.1091 56.3469 27.6386 55.6446 29.3518C54.9423 31.0649 54.6415 32.9161 54.7654 34.7634C54.8892 36.6107 55.4344 38.4052 56.3591 40.0092C57.2838 41.6133 58.5634 42.9843 60.1 44.0172Z" fill="#BF8256"/>
<path d="M49.659 47.7433C40.871 44.8983 38.141 18.1243 57.244 24.3073C76.347 30.4903 58.447 50.5873 49.659 47.7433Z" stroke="#45413C" stroke-linecap="round" stroke-linejoin="round"/>
<path d="M57.285 33.8103C57.285 34.2938 57.4771 34.7575 57.8189 35.0994C58.1608 35.4412 58.6245 35.6333 59.108 35.6333C59.5915 35.6333 60.0552 35.4412 60.3971 35.0994C60.7389 34.7575 60.931 34.2938 60.931 33.8103C60.931 33.3268 60.7389 32.8631 60.3971 32.5212C60.0552 32.1794 59.5915 31.9873 59.108 31.9873C58.6245 31.9873 58.1608 32.1794 57.8189 32.5212C57.4771 32.8631 57.285 33.3268 57.285 33.8103Z" fill="#45413C"/>
</svg>

<svg xmlns="http://www.w3.org/2000/svg" width="89" height="87" fill="none" viewBox="0 0 89 87"><path fill="#b8ecff" d="M80.949 59.77a40 40 0 1 0-72.9 0z"/><path stroke="#45413c" stroke-linecap="round" stroke-linejoin="round" d="M5.5 59.77h78M1 59.77h2.5M85.5 59.77H88"/><path fill="#9ceb60" d="M8.04 59.77a39.739 39.739 0 0 0 72.92 0z"/><path stroke="#45413c" stroke-linecap="round" stroke-linejoin="round" d="M82.331 59.77H6.858"/><path stroke="#6dd627" stroke-linecap="round" d="M59.2 72.014h7.514M54.817 72.014h1.878M51.686 72.014h.626M27.864 68.34h7.515M23.481 68.34h1.879M20.35 68.34h.626M39.611 79.89h7.514M35.227 79.89h1.879M32.096 79.89h.626"/><path fill="#00b8f0" stroke="#45413c" stroke-linecap="round" stroke-linejoin="round" d="M29.956 43.223a3.904 3.904 0 0 1-1.02-7.74l.107-.015a3.904 3.904 0 1 1 1.02 7.741zM28.725 31.896a2.853 2.853 0 0 1-3.161-2.5l-.253-2.143a7.15 7.15 0 0 1 3.946-7.212 5.677 5.677 0 0 0-3.2-10.724l-.148.02a5.71 5.71 0 0 0-4.809 6.28 2.847 2.847 0 0 1-4.6 2.572 2.83 2.83 0 0 1-1.064-1.9A11.32 11.32 0 0 1 25.11 3.704l.3-.04a11.371 11.371 0 0 1 6.378 21.483 1.45 1.45 0 0 0-.818 1.444l.252 2.143a2.87 2.87 0 0 1-2.422 3.152z"/><path fill="#45413c" d="M33.862 76.292c0 .317.482.63 1.418.922.937.293 2.309.558 4.039.782s3.784.4 6.044.522c2.26.121 4.683.183 7.13.183s4.87-.062 7.13-.183 4.314-.299 6.044-.522 3.102-.49 4.039-.782 1.418-.605 1.418-.922c0-.639-1.963-1.251-5.457-1.703s-8.233-.706-13.174-.706-9.68.254-13.174.706-5.457 1.064-5.457 1.703" opacity=".15"/><path fill="#f0d3a8" stroke="#45413c" stroke-linecap="round" stroke-linejoin="round" d="m64.622 56.507 2.323-.342a3.017 3.017 0 0 1 3.435 2.494l.033.212c.05.327.046.66-.014.986l-2.633 11.62a4.47 4.47 0 0 1 1.306 3.422h-6.39zM40.365 56.507l-2.324-.342a3.016 3.016 0 0 0-3.435 2.494l-.033.212c-.05.327-.046.66.014.986l2.633 11.62a4.47 4.47 0 0 0-1.306 3.422H42.3z"/><path fill="#f7e5c6" d="M52.493 41.934c-11.939 0-18.906 16.32-7.556 29.067 1.35 1.517 0 3.9 0 3.9h14.915a2.41 2.41 0 0 1 0-3.68C71.479 58.56 64.5 41.934 52.493 41.934"/><path fill="#f0d3a8" d="M52.493 41.934a12.43 12.43 0 0 0-8.871 3.7 10.4 10.4 0 0 0 5.288 4.425 8.6 8.6 0 0 0 2.643.4c3.41 0 7.074-1.83 10.087-4.525a12.43 12.43 0 0 0-9.147-4"/><path fill="#fff" d="M44.937 74.9h14.915a56 56 0 0 1 2.552-6.01c-1.066-11.423-5.1-19.922-9.911-19.922s-8.846 8.5-9.911 19.923a51 51 0 0 1 2.355 6.008"/><path stroke="#45413c" stroke-linecap="round" stroke-linejoin="round" d="M52.493 41.934c-11.939 0-18.906 16.32-7.556 29.067 1.35 1.517 0 3.9 0 3.9h14.915a2.41 2.41 0 0 1 0-3.68C71.479 58.56 64.5 41.934 52.493 41.934"/><path fill="#ffe500" d="M49.829 50.856a2.664 2.664 0 1 0 5.328 0 2.664 2.664 0 0 0-5.328 0"/><path fill="#fff48c" d="M52.493 50.19a2.665 2.665 0 0 1 2.47 1.665 2.663 2.663 0 1 0-4.94 0 2.665 2.665 0 0 1 2.47-1.665"/><path stroke="#45413c" stroke-linecap="round" stroke-linejoin="round" d="M49.829 50.856a2.664 2.664 0 1 0 5.328 0 2.664 2.664 0 0 0-5.328 0"/><path fill="#f7e5c6" d="M39.182 57.362c-.005 4.338 1.93 10.585 1.93 10.585a2.97 2.97 0 0 1-.785 2.442 2.92 2.92 0 0 0-.808 2.058 2.29 2.29 0 0 0 2.087 2.452h4.677a2.165 2.165 0 0 0 1.971-2.317 3.2 3.2 0 0 0-.9-2.272c-.178-.175-3.5-6.21-2.812-11.607"/><path stroke="#45413c" stroke-linecap="round" stroke-linejoin="round" d="M39.182 57.362c-.005 4.338 1.93 10.585 1.93 10.585a2.97 2.97 0 0 1-.785 2.442 2.92 2.92 0 0 0-.808 2.058 2.29 2.29 0 0 0 2.087 2.452h4.677a2.165 2.165 0 0 0 1.971-2.317 3.2 3.2 0 0 0-.9-2.272c-.178-.175-3.5-6.21-2.812-11.607"/><path fill="#f7e5c6" d="M65.8 57.362c0 4.338-1.93 10.585-1.93 10.585a2.97 2.97 0 0 0 .785 2.442 2.92 2.92 0 0 1 .808 2.058 2.29 2.29 0 0 1-2.086 2.452H58.7a2.165 2.165 0 0 1-1.971-2.317 3.2 3.2 0 0 1 .9-2.272c.178-.175 3.5-6.21 2.813-11.607"/><path stroke="#45413c" stroke-linecap="round" stroke-linejoin="round" d="M65.8 57.362c0 4.338-1.93 10.585-1.93 10.585a2.97 2.97 0 0 0 .785 2.442 2.92 2.92 0 0 1 .808 2.058 2.29 2.29 0 0 1-2.086 2.452H58.7a2.165 2.165 0 0 1-1.971-2.317 3.2 3.2 0 0 1 .9-2.272c.178-.175 3.5-6.21 2.813-11.607"/><path fill="#bf8256" stroke="#45413c" stroke-linecap="round" stroke-linejoin="round" d="M52.8 21.86a4.62 4.62 0 0 1-9.205.771c-.158-1.882 2.016-6.232 3.157-8.366a.92.92 0 0 1 1.542-.129c1.484 1.915 4.352 5.842 4.506 7.723M62.276 24.925a4.619 4.619 0 0 0 7.008 6.02c1.23-1.428 2.016-6.228 2.343-8.628a.92.92 0 0 0-1.174-1.009c-2.322.683-6.946 2.185-8.177 3.617"/><path fill="#fff5e3" d="M49.659 47.743c-8.788-2.845-11.518-29.619 7.585-23.436s1.203 26.28-7.585 23.436"/><path fill="#45413c" d="M48.343 30.916a1.823 1.823 0 1 0 3.646 0 1.823 1.823 0 0 0-3.646 0M52.785 46.146c-.423 1.3-3.126 1.6-3.126 1.6s-2.019-1.829-1.597-3.129a2.482 2.482 0 0 1 4.723 1.53"/><path fill="#bf8256" d="M60.1 44.017c6.007-5.38 9.355-14.777-1.283-19.137A12.13 12.13 0 0 0 60.1 44.017"/><path stroke="#45413c" stroke-linecap="round" stroke-linejoin="round" d="M49.659 47.743c-8.788-2.845-11.518-29.619 7.585-23.436s1.203 26.28-7.585 23.436"/><path fill="#45413c" d="M57.285 33.81a1.823 1.823 0 1 0 3.647 0 1.823 1.823 0 0 0-3.647 0"/></svg>
